!!!COM: Haydn, Franz Joseph
!!!OTL: String Quartet in F Minor
!!!OPS: Opus 20
!!!ONM: No. 5
!!!OMD: Moderato
!!!OMV: 1
!!!SCT: H III:35
!!!SCA: Thematisch-bibliographisches Werkevererzeichnis (A. van Hoboken)
!!!YOR: Trautwein Edition
!!!ENC: Frances Bennion
!!!CDT: 1732/3/31/-1809/5/31/
!!!CNT: Oesterreich
!!!YEC: Copyright (c) 1994, 2000 Center for Computer Assisted Research in the Humanities
!!!YEM: Rights to all derivative editions reserved.
!!!YEM: Refer to licensing agreement for further details.
!!!YEN: United States of America
**kern	**kern	**kern	**kern
*k[b-e-a-d-]	*k[b-e-a-d-]	*k[b-e-a-d-]	*k[b-e-a-d-]
*f:	*f:	*f:	*f:
*clefF4	*clefC3	*clefG	*clefG
*M4/4	*M4/4	*M4/4	*M4/4
8r	8r	8r	[3..f
8F	8A-	8c	.
8F	8A-	8c	.
8F	8A-	8c	.
4F	4A-	4c	.
.	.	.	24f]
.	.	.	8a-
4r	4r	4r	8e
.	.	.	8f
=2	=2	=2	=2
8r	8r	8r	[3..g
8E	8c	8B-	.
8E	8c	8B-	.
8E	8c	8B-	.
4E	4c	4B-	.
.	.	.	24g]
.	.	.	8b-
4r	4r	4r	8d-
.	.	.	8c
=3	=3	=3	=3
8r	8r	8r	[3..a-
8F	8c	8A-	.
8F	8c	8A-	.
8F	8c	8A-	.
4F	4c	4A-	.
.	.	.	24a-]
.	.	.	8cc
4r	4r	4r	8e
.	.	.	8f
=4	=4	=4	=4
4BB-	4G	4d-	8r
.	.	.	8g
2r	2r	2r	8b-
.	.	.	8dd-
.	.	.	8cc
.	.	.	16b-
.	.	.	16a-
4C	4G	4B-	8g
.	.	.	16f
.	.	.	16e
=5	=5	=5	=5
8r	8r	8r	[2f
8F	8F	8A-	.
8F	8c	8A-	.
8F	8c	8A-	.
4F	4c	4A-	16f]
.	.	.	16cc
.	.	.	16b-
.	.	.	16a-
4r	4r	4r	16g
.	.	.	16f
.	.	.	16e
.	.	.	16f
=6	=6	=6	=6
8r	8r	8r	8f#
8E	8B-	8d-	8g
8E	8B-	8d-	[6..g
8E	8B-	8c	.
4E	4B-	4c	.
.	.	.	48g]
.	.	.	16a-
.	.	.	16b-
.	.	.	16cc
4r	4r	4r	8dd-
.	.	.	16cc
.	.	.	16b-
=7	=7	=7	=7
8r	8r	8r	16b-
.	.	.	16a-
8F	8A-	8c	16g
.	.	.	16a-
8F	8A-	8c	[6..a-
8F	8A-	8c	.
4F	4A-	4c	.
.	.	.	48a-]
.	.	.	16cc
.	.	.	16b-
.	.	.	16a-
4r	4r	4r	16g
.	.	.	16f
.	.	.	16e
.	.	.	16f
=8	=8	=8	=8
8r	8r	8r	8cc
8D-	8F	8f	8b-
8D-	8B-	8f	[6..b-
8D-	8B-	8f	.
4D-	4B-	4f	.
.	.	.	48b-]
.	.	.	16ff
.	.	.	16ee
.	.	.	16ff
4r	4r	4r	16gg
.	.	.	16ff
.	.	.	16aa-
.	.	.	16gg
=9	=9	=9	=9
8r	8r	8r	8gg
8D-	8A-	8B	8ff
8D-	8A-	8B	[6..ff
8D-	8A-	8B	.
4D-	4A-	4B	.
.	.	.	48ff]
.	.	.	16f
.	.	.	16e
.	.	.	16f
4r	4r	4r	16g
.	.	.	16f
.	.	.	16a-
.	.	.	16f
=10	=10	=10	=10
4r	4r	4.r	8e
.	.	.	8cc
4C	4c	.	8r
.	.	8g	8ee
4r	4r	8a-	8ff
.	.	8a-	8ff
4BB	4B	4r	16r
.	.	.	16a-
.	.	.	16g
.	.	.	16f
=11	=11	=11	=11
4r	4r	4.r	8e
.	.	.	8cc
4C	4c	.	8r
.	.	8ee	8gg
4r	4r	8ff	8aa-
.	.	8ff	8aa-
4D-	4A-	4B	16r
.	.	.	16a-
.	.	.	16g
.	.	.	16f
=12	=12	=12	=12
1C	2A-	2B	2f
.	8G	8c	8e
.	8A-	8B	8f
.	8G	8c	8e
.	8A-	8B	8f
=13	=13	=13	=13
8C	[1G	[1c	1e
8C	.	.	.
8C	.	.	.
8C	.	.	.
8C	.	.	.
8C	.	.	.
8C	.	.	.
8C	.	.	.
=14	=14	=14	=14
8C	2G]	2.c]	2.e-
8C	.	.	.
8C	.	.	.
8C	.	.	.
8C	2A-	.	.
8C	.	.	.
8C	.	4e-	4g-
8C	.	.	.
=15	=15	=15	=15
8D-	4A-	4d-	4f
8D-	.	.	.
8D-	4A	4c	2ff
8D-	.	.	.
8D-	4B-	4d-	.
8D-	.	.	.
8C	4g-	4A	4ee-
8C	.	.	.
=16	=16	=16	=16
8BB-	2.f	4B-	4dd-
8BB-	.	.	.
8C	.	4e-	4cc
8C	.	.	.
8D-	.	4d-	4b-
8D-	.	.	.
8D	4B-	4f	[4a-
8D	.	.	.
=17	=17	=17	=17
[2E-	[2d-	[2B-	4a-]
.	.	.	16g
.	.	.	16a-
.	.	.	16b-
.	.	.	16cc
8E-]	8d-]	8B-]	16dd-
.	.	.	16b-
4.r	4.r	4.r	16g
.	.	.	16e-
.	.	.	16d-
.	.	.	16B-
.	.	.	16G
.	.	.	16B-
=18	=18	=18	=18
4r	4r	4r	16d-
.	.	.	16e-
.	.	.	16g
.	.	.	16b-
8E-	8G	8b- 8e-	8dd-
8E-	8G	8b- 8e-	8dd-
4E-	4G	4e- 4b-	4dd-
4r	4r	4r	4r
=19	=19	=19	=19
1r	1r	1r	4.r
.	.	.	16bb-
.	.	.	16gg
.	.	.	8ee-
.	.	.	8dd-
.	.	.	8cc
.	.	.	8b-
=20	=20	=20	=20
8r	8r	8r	[3..a-
8A-	8c	8e-	.
8A-	8c	8e-	.
8A-	8c	8e-	.
4A-	4c	4e-	.
.	.	.	24a-]
.	.	.	8cc
4r	4r	4r	8g
.	.	.	8a-
=21	=21	=21	=21
8r	8r	8r	[3..ee-
8G	8B-	8e-	.
8G	8B-	8e-	.
8G	8B-	8e-	.
4G	4B-	[2ee-	.
.	.	.	24ee-]
.	.	.	8ee-
4r	4r	.	8ff
.	.	.	8gg
=22	=22	=22	=22
2F	8r	8ee-]	8aa-
.	4a-	8ff	8cc
.	.	4.dd-	8dd-
.	8A-	.	8aa-
2E-	8r	.	8gg
.	4g	8ee-	8b
.	.	[4cc	8cc
.	8G	.	8gg
=23	=23	=23	=23
2D-	8r	8cc]	8ff
.	4f	8dd-	8a
.	.	4.b-	8b-
.	8F	.	8ff
2C	8r	.	8ee-
.	4e-	8cc	8g
.	.	4a-	8a-
.	8E-	.	[8ee-
=24	=24	=24	=24
4BB-	2E-	4g	8ee-]
.	.	.	4dd-
4AA-	.	4a-	.
.	.	.	4cc
4D-	4F	2f	.
.	.	.	4b-
4D	4B-	.	.
.	.	.	8a-
=25	=25	=25	=25
8E-	2B-	4e-	16g
.	.	.	16ee-
8E-	.	.	16gg
.	.	.	16ee-
8E-	.	4ee-	16gg
.	.	.	16ee-
8E-	.	.	16gg
.	.	.	16ee-
8E-	2a-	2dd	16dd
.	.	.	16ff
8E-	.	.	16aa-
.	.	.	16ff
8E-	.	.	16aa-
.	.	.	16ff
8E-	.	.	16dd
.	.	.	16ff
=26	=26	=26	=26
8E-	4g	4ee-	16ee-
.	.	.	16dd
8E-	.	.	16ee-
.	.	.	16ff
8E-	4B-	4g	16gg
.	.	.	16ee-
8E-	.	.	16gg
.	.	.	16ee-
8E-	2d	2a-	16dd
.	.	.	16ee-
8E-	.	.	16ff
.	.	.	16ee-
8E-	.	.	16dd
.	.	.	16cc
8E-	.	.	16b-
.	.	.	16a-
=27	=27	=27	=27
4E-	4e-	4g	16g
.	.	.	16a-
.	.	.	16b-
.	.	.	16cc
4r	2r	2.r	16b-
.	.	.	16a-
.	.	.	16g
.	.	.	16f
16E-	.	.	4e-
16D	.	.	.
16E-	.	.	.
16F	.	.	.
16E-	8r	.	8r
16D-	.	.	.
16C	8e-	.	8e-
16BB-	.	.	.
=28	=28	=28	=28
8AA-	4cc	8r	4ee-
8A-	.	8c	.
8B-	8b-	8d-	8dd-
8c	8a-	8e-	8cc
8.d-	4.a-	8.f	8.b-
16c	.	16e-	16cc
8B-	.	8d-	8dd-
8c	8a-	8e-	8cc
=29	=29	=29	=29
8.d-	4.a-	8.f	8.b-
16c	.	16e-	16cc
8B-	.	8d-	8dd-
8c	8a-	8e-	8cc
8d-	4a-	8f	8b-
8c	.	8e-	8cc
8B-	8b-	8d-	8dd-
8A-	8cc	8c	8ee-
=30	=30	=30	=30
2G	4.dd-	4B-	4.ff
.	.	2e-	.
.	16cc	.	16ee-
.	16b-	.	16dd-
8A-	8a-	.	8cc
8r	8cc	.	8ee-
8C	8e-	8a-	8r
8r	8r	8r	8a-
=31	=31	=31	=31
8D-	8f	8f	8b-
8r	8r	8r	8dd-
8E-	8B-	8d-	8r
8r	8r	8r	8g
4AA-	4c	4c	4a-
4r	4r	4r	8r
.	.	.	16ee-
.	.	.	16cc
=32	=32	=32	=32
8.d-	8.f	4.a-	8.b-
16c	16e-	.	16cc
8B-	8d-	.	8dd-
8c	8e-	8a-	8cc
4d-	4f	4a-	4b-
4r	4r	4r	4r
=33	=33	=33	=33
8.d-	8.f	4.a-	8.b-
16c	16e-	.	16cc
8B-	8d-	.	8dd-
8c	8e-	8a-	8cc
4d-	4f	4a-	4b-
4r	4r	4r	4r
=34	=34	=34	=34
4d	4f	4a-	4cc-
2.r	2.r	2.r	4r
.	.	.	4ff
.	.	.	4r
=35	=35	=35	=35
[2e-	8.g	8.b-	[3..ee-
.	16a-	16cc-	.
.	8b-	8dd-	.
.	8a-	8cc-	.
8e-]	8g	[2b-	.
.	.	.	24ee-]
8f-	8a-	.	8dd
8e-	8g	.	8ee-
8f-	8a-	.	8dd
=36	=36	=36	=36
[1e-	8.g	8.b-]	[3..ee-
.	16a-	16cc-	.
.	8b-	8dd-	.
.	8a-	8cc-	.
.	8g	8b-	.
.	.	.	24ee-]
.	8a-	8cc-	8dd
.	8g	8b-	8ee-
.	8a-	8cc-	8dd
=37	=37	=37	=37
8e-]	2g	16b-	2ee-
.	.	16ee-	.
8e-	.	16dd	.
.	.	16ee-	.
8e-	.	16ff	.
.	.	16ee-	.
8e-	.	16dd	.
.	.	16ee-	.
8d-	2b-	16r	2gg
.	.	16ee-	.
8d-	.	16dd	.
.	.	16ee-	.
8d-	.	16ff	.
.	.	16ee-	.
8d-	.	16dd	.
.	.	16ee-	.
=38	=38	=38	=38
8c	2e-	16r	2aa-
.	.	16ee-	.
8c	.	16dd	.
.	.	16ee-	.
8c	.	16ff	.
.	.	16ee-	.
8c	.	16dd	.
.	.	16ee-	.
8G	2B-	16r	2ddd-
.	.	16ee-	.
8G	.	16dd	.
.	.	16ee-	.
8G	.	16ff	.
.	.	16ee-	.
8G	.	16dd	.
.	.	16ee-	.
=39	=39	=39	=39
8A-	8c	8ee-	16ccc
.	.	.	16ee-
8r	8r	8r	8ee-
8G	8B-	8ee-	16ddd-
.	.	.	16ee-
8r	8r	8r	8ee-
8A-	8c	8ee-	16ccc
.	.	.	16ee-
8r	8r	8r	8ee-
8G	8B-	8ee-	16ddd-
.	.	.	16ee-
8r	8r	8r	8ee-
=40	=40	=40	=40
4A-	4c	4e-	16ccc
.	.	.	16aa-
.	.	.	16eee-
.	.	.	16ccc
4r	4.r	4r	16eee-
.	.	.	16ccc
.	.	.	16eee-
.	.	.	16ccc
2C	.	[2a-	8aa-
.	8e-	.	8gg- 8aa-
.	8f	.	8ff
.	8g-	.	8aa- 8ee
=41	=41	=41	=41
8D-	8g-	4.a-]	8ee 8aa-
8D-	8f	.	8ff
8D-	8f	.	[6..ff
8D-	8A	8cc	.
4D-	4B-	4dd-	.
.	.	.	48ff]
.	.	.	16dd-
.	.	.	8ddd-
4r	4r	4r	8ccc
.	.	.	8bb-
=42	=42	=42	=42
8E-	8c	8a-	2eee-
8E-	8c	8a-	.
8E-	8c	8a-	.
8E-	8c	8a-	.
8E-	8d-	8g	2bb-
8E-	8d-	8g	.
8E-	8d-	8g	.
8E-	8d-	8g	.
=43	=43	=43	=43
8F	4c	16a-	2aa-
.	.	16dd-	.
8FF	.	16cc	.
.	.	16dd-	.
8r	8r	16ee-	.
.	.	16dd-	.
8F	8A-	16cc	.
.	.	16dd-	.
8E-	8B-	16r	2gg
.	.	16dd-	.
8EE-	8c	16ee-	.
.	.	16b-	.
8r	4r	16dd-	.
.	.	16cc	.
8E-	.	16b-	.
.	.	16cc	.
=44	=44	=44	=44
8D-	4.r	16r	2ff
.	.	16cc	.
8DD-	.	16dd-	.
.	.	16a	.
8r	.	16cc	.
.	.	16b-	.
8D-	8F	16a	.
.	.	16b-	.
8C	8G	16r	2ee-
.	.	16b-	.
8CC	8A-	16cc	.
.	.	16g	.
8r	8r	16b-	.
.	.	16a-	.
8C	8E-	16g	.
.	.	16a-	.
=45	=45	=45	=45
4BB-	8F	16r	4dd-
.	.	16a-	.
.	8G	16b-	.
.	.	16g	.
4AA-	8r	16r	4cc
.	.	16g	.
.	8e-	16a-	.
.	.	16e-	.
4D-	4d-	4f	16r
.	.	.	16b-
.	.	.	16dd-
.	.	.	16b-
8E-	8c	8e-	8a-
8E-	8B-	8d-	8g
=46	=46	=46	=46
8A-	4A-	2c	4a-
8A-	.	.	.
8A-	2r	.	4e-
8A-	.	.	.
8A-	.	2d-	2f-
8A-	.	.	.
8G	4B-	.	.
8G	.	.	.
=47	=47	=47	=47
8A-	4c	2c	4e-
8A-	.	.	.
8A-	2r	.	4a-
8A-	.	.	.
8A-	.	2d-	2f-
8A-	.	.	.
8G	4B-	.	.
8G	.	.	.
=48	=48	=48	=48
8A-	2c	2c	4e-
8A-	.	.	.
8A-	.	.	4a-
8A-	.	.	.
8G	2B-	4d-	2e
8G	.	.	.
8G	.	4c	.
8G	.	.	.
=49	=49	=49	=49
8A-	4c	4c	4e-
8A-	.	.	.
8F	4A-	2d-	4f
8F	.	.	.
8E-	4B-	.	4g-
8E-	.	.	.
8AA-	4g-	4e-	4c
8AA-	.	.	.
=50	=50	=50	=50
8r	8r	8r	[3..d-
8D-	8F	8A-	.
8D-	8F	8A-	.
8D-	8F	8A-	.
4D-	4F	4A-	.
.	.	.	24d-]
.	.	.	8f
4r	4r	4r	8c
.	.	.	8d-
=51	=51	=51	=51
8r	8r	8r	[3..e-
8C	8E-	8A-	.
8C	8E-	8A-	.
8C	8E-	8A-	.
4C	4E-	4A-	.
.	.	.	24e-]
.	.	.	8a-
4r	4r	4r	8e-
.	.	.	8g-
=52	=52	=52	=52
8r	8r	8r	[3..f
8C-	8D-	8A-	.
8C-	8D-	8A-	.
8C-	8D-	8A-	.
4C-	4D-	4A-	.
.	.	.	24f]
.	.	.	8a-
4r	4r	4r	8f
.	.	.	8e-
=53	=53	=53	=53
8r	8r	8r	[3..d
8BB-	8F	8A-	.
8BB-	8F	8A-	.
8BB-	8F	8A-	.
4BB-	4F	4a-	.
.	.	.	24d]
.	.	.	8cc-
4r	4r	4r	8b-
.	.	.	8d
=54	=54	=54	=54
8r	8r	8r	[3..e-
8E-	8G-	8B-	.
8E-	8G-	8B-	.
8E-	8G-	8B-	.
4E-	4G-	4B-	.
.	.	.	24e-]
.	.	.	8g-
4r	4r	4r	8d
.	.	.	8e-
=55	=55	=55	=55
8r	8r	8r	[3..f
8D	8F	8B-	.
8D	8F	8B-	.
8D	8F	8B-	.
4D	4F	4B-	.
.	.	.	24f]
.	.	.	8a-
4r	4r	4r	8c-
.	.	.	8B-
=56	=56	=56	=56
8r	8r	8r	[3..g
8D-	8E-	8B-	.
8D-	8E-	8B-	.
8D-	8E-	8B-	.
4D-	4E-	4b-	.
.	.	.	24g]
.	.	.	8b-
4r	4r	4r	8ee-
.	.	.	8g
=57	=57	=57	=57
8r	8r	8r	[3..a-
8A-	8c	8e-	.
8A-	8c	8e-	.
8A-	8c	8e-	.
4A-	4c	4e-	.
.	.	.	24a-]
.	.	.	8cc
4r	4r	4r	8g
.	.	.	8a-
=58	=58	=58	=58
8r	8r	8r	[3..b-
8G	8B-	8e-	.
8G	8B-	8e-	.
8G	8B-	8e-	.
4G	4B-	4e-	.
.	.	.	24b-]
.	.	.	8ff
4r	4r	4r	8ee-
.	.	.	8dd-
=59	=59	=59	=59
8r	8r	8r	16cc
.	.	.	16ee-
8A-	8c	8e-	16aa-
.	.	.	16ccc
8A-	8c	8e-	16bb-
.	.	.	16aa-
8A-	8c	8e-	16gg
.	.	.	16aa-
8r	8r	8r	8.bb-
8G	8B-	8e-	.
.	.	.	16dd-
8G	8B-	8e-	8.dd-
8G	8B-	8e-	.
.	.	.	32cc
.	.	.	32dd-
=60	=60	=60	=60
8r	8r	8r	16cc
.	.	.	16ee-
8A-	8c	8e-	16aa-
.	.	.	16ccc
8A-	8c	8e-	16bb-
.	.	.	16aa-
8A-	8c	8e-	16gg
.	.	.	16aa-
8r	8r	8r	8.bb-
8G	8B-	8e-	.
.	.	.	16dd-
8G	8B-	8e-	8.dd-
8G	8B-	8e-	.
.	.	.	32cc
.	.	.	32dd-
=61	=61	=61	=61
4A-	4c	4e-	16cc
.	.	.	16ee-
.	.	.	16aa-
.	.	.	16ccc
2.r	2.r	4r	16bb-
.	.	.	16aa-
.	.	.	16gg
.	.	.	16aa-
.	.	8ee-	16gg-
.	.	.	16aa-
.	.	8dd-	16ff
.	.	.	16aa-
.	.	8cc	16ee-
.	.	.	16aa-
.	.	8b-	16dd-
.	.	.	16aa-
=62	=62	=62	=62
2r	2r	4a-	8cc
.	.	.	8gg-
.	.	2.r	8ee-
.	.	.	8cc
8c	8e-	.	4a-
8c	8e-	.	.
8B-	8d-	.	4g-
8B-	8d-	.	.
=63	=63	=63	=63
8A	8c	16f	8f
.	.	16ff	.
8A	8c	16ee	8ff
.	.	16ff	.
8A	8c	16cc	2ff
.	.	16ff	.
8A	8c	16b-	.
.	.	16ff	.
8A	8c	16a	.
.	.	16ff	.
8A	8c	16g	.
.	.	16ff	.
8A	8f	8f	4ee-
8A	8f	8cc	.
=64	=64	=64	=64
4B-	4f	4dd	16dd
.	.	.	16ff
.	.	.	16bb-
.	.	.	16ddd
2.r	2.r	4r	16ccc
.	.	.	16bb-
.	.	.	16aa
.	.	.	16bb-
.	.	8ff	16aa-
.	.	.	16bb-
.	.	8ee-	16gg
.	.	.	16bb-
.	.	8dd	16ff
.	.	.	16bb-
.	.	8cc	16ee-
.	.	.	16bb-
=65	=65	=65	=65
2r	2r	4b-	8dd
.	.	.	8aa-
.	.	2.r	8ff
.	.	.	8dd
8d	8f	.	4b-
8d	8f	.	.
8c	8e-	.	4a-
8c	8e-	.	.
=66	=66	=66	=66
8B	8d	16g	8g
.	.	16gg	.
8B	8d	16ff#	8gg
.	.	16gg	.
8B	8d	16dd	2gg
.	.	16gg	.
8B	8d	16cc	.
.	.	16gg	.
8B	8d	16b	.
.	.	16gg	.
8B	8d	16a	.
.	.	16gg	.
8B	8g	8g	4ff
8B	8g	8dd	.
=67	=67	=67	=67
4c	4g	4ee	16ee
.	.	.	16gg
.	.	.	16ccc
.	.	.	16eee
2.r	2.r	4r	16ddd
.	.	.	16ccc
.	.	.	16bb
.	.	.	16ccc
.	.	8gg	16bb-
.	.	.	16ccc
.	.	8ff	16aa-
.	.	.	16ccc
.	.	8ee	16gg
.	.	.	16ccc
.	.	8dd	16ff
.	.	.	16ccc
=68	=68	=68	=68
2r	2r	4cc	8ee
.	.	.	8bb-
.	.	4r	8gg
.	.	.	8ee
8E	4c	2g	4cc
8E	.	.	.
8E	[4cc	.	4b-
8E	.	.	.
=69	=69	=69	=69
8F	4.cc]	4f	8a-
8F	.	.	8aa-
8F	.	2.r	2aa-
8F	16b-	.	.
.	16cc	.	.
8F	4dd-	.	.
8F	.	.	.
8F#	4e-	.	4cc
8F#	.	.	.
=70	=70	=70	=70
[2G	8.d	8.b	[3..gg
.	16e-	16cc	.
.	8f	8dd	.
.	8e-	8cc	.
8G]	[2d	8b	.
.	.	.	24gg]
8A-	.	8cc	8ff#
8G	.	8b	8gg
8A-	.	8cc	8ff#
=71	=71	=71	=71
[1G	8.d]	8.b	[3..gg
.	16e-	16cc	.
.	8f	8dd	.
.	8e-	8cc	.
.	8d	8b	.
.	.	.	24gg]
.	8e-	8cc	8ff#
.	8d	8b	8gg
.	8e-	8cc	8ff#
=72	=72	=72	=72
8G]	1d	16b	2gg
.	.	16gg	.
8G	.	16ff#	.
.	.	16gg	.
8G	.	16aa-	.
.	.	16gg	.
8G	.	16ff#	.
.	.	16gg	.
8F	.	16r	2bb
.	.	16gg	.
8F	.	16ff#	.
.	.	16gg	.
8F	.	16aa-	.
.	.	16gg	.
8F	.	16ff#	.
.	.	16gg	.
=73	=73	=73	=73
8E-	2c	16r	2ccc
.	.	16gg	.
8E-	.	16ff#	.
.	.	16gg	.
8E-	.	16aa-	.
.	.	16gg	.
8E-	.	16ff#	.
.	.	16gg	.
8BB	2d	16r	2fff
.	.	16gg	.
8BB	.	16ff#	.
.	.	16gg	.
8BB	.	16aa-	.
.	.	16gg	.
8BB	.	16ff#	.
.	.	16gg	.
=74	=74	=74	=74
4C	8c	4gg	16eee-
.	.	.	16ccc
.	8d	.	16fff
.	.	.	16ddd
2.r	8e-	4r	4.ggg
.	8e-	.	.
.	8e-	[2cc	.
.	8e-	.	8eee-
.	8e-	.	8ccc
.	8e-	.	8gg
=75	=75	=75	=75
1r	8f	4cc]	8aa-
.	8f	.	8ff
.	8f	4aa-	4fff
.	8f	.	.
.	8f	4gg	4eee-
.	8f	.	.
.	8f	4ff	4ddd
.	8f	.	.
=76	=76	=76	=76
1r	8g	16ee-	2ccc
.	.	16gg	.
.	8g	16ccc	.
.	.	16gg	.
.	8g	16ccc	.
.	.	16gg	.
.	8g	16ee-	.
.	.	16cc	.
.	8g	4g	2ddd
.	8g	.	.
.	8g	4b	.
.	8g	.	.
=77	=77	=77	=77
8c	8c	8cc	2.ccc
8c	8e-	8g	.
8c	8e-	8g	.
8c	8e-	8g	.
8c	8e-	8g	.
8c	8e-	8g	.
8c	8e-	8g	4eee-
8c	8e-	8g	.
=78	=78	=78	=78
8B-	8e-	8g	8eee-
8B-	8e-	8g	8ddd-
8B-	8e-	8g	4.ddd-
8B-	8e-	8g	.
8B-	8e-	8g	.
8B-	8e-	8g	8ddd-
8B-	8e-	8g	8eee-
8B-	8e-	8g	8bb-
=79	=79	=79	=79
8A-	8e-	8a-	8ddd-
8A-	8e-	8a-	8ccc
8A-	8e-	8a-	2ccc
8A-	8e-	8a-	.
8A-	8c	8e-	.
8A-	8c	8e-	.
8A-	8c	8e-	4ccc
8A-	8c	8e-	.
=80	=80	=80	=80
8G	8c	8e	8ccc
8G	8c	8e	8bb-
8G	8c	8e	4.bb-
8G	8c	8e	.
8G	8c	8e	.
8G	8c	8e	8bb-
8G	8c	8e	8ccc
8G	8c	8e	8gg
=81	=81	=81	=81
8F	8c	8f	8bb-
8F	8c	8f	8aa-
8F	8F	8f	4.aa-
8F	8F	8f	.
2D-	2F	2B	.
.	.	.	8aa-
.	.	.	8gg
.	.	.	8ff
=82	=82	=82	=82
[2C	[2G	[2B-	4ff
.	.	.	16ee
.	.	.	16ff
.	.	.	16gg
.	.	.	16aa-
8C]	8G]	8B-]	16bb-
.	.	.	16gg
4.r	4.r	4.r	16ee
.	.	.	16dd-
.	.	.	16b-
.	.	.	16g
.	.	.	16e
.	.	.	16g
=83	=83	=83	=83
4r	4r	4r	16b-
.	.	.	16dd-
.	.	.	16ee
.	.	.	16gg
8E	8cc	8gg	8bb-
8E	8cc	8gg	8bb-
4E	4cc	4gg	4bb-
4r	4r	4r	4r
=84	=84	=84	=84
1r	1r	1r	4.r
.	.	.	24bb-
.	.	.	24gg
.	.	.	24ee
.	.	.	4cc
.	.	.	8r
.	.	.	24bb-
.	.	.	24gg
.	.	.	24ee
=85	=85	=85	=85
4E	4g	4b-	4cc
2.r	2.r	2.r	8r
.	.	.	24bb-
.	.	.	24gg
.	.	.	24ee
.	.	.	8cc
.	.	.	8b-
.	.	.	8a-
.	.	.	8g
=86	=86	=86	=86
8r	8r	8r	[3..f
8F	8A-	8c	.
8F	8A-	8c	.
8F	8A-	8c	.
4F	4A-	4c	.
.	.	.	24f]
.	.	.	8a-
4r	4r	4r	8e
.	.	.	8f
=87	=87	=87	=87
8r	8r	8r	[3..g
8E	8c	8B-	.
8E	8c	8B-	.
8E	8c	8B-	.
4E	4c	4B-	.
.	.	.	24g]
.	.	.	8b-
4r	4r	4r	8d-
.	.	.	8c
=88	=88	=88	=88
8r	8r	8r	[3..a-
8F	8c	8A-	.
8F	8c	8A-	.
8F	8c	8A-	.
4F	4c	4A-	.
.	.	.	24a-]
.	.	.	8cc
4r	4r	4r	8e
.	.	.	8f
=89	=89	=89	=89
4BB-	4G	4d-	8r
.	.	.	8g
2r	2r	2r	8b-
.	.	.	8dd-
.	.	.	8cc
.	.	.	16b-
.	.	.	16a-
4C	4G	4B-	8g
.	.	.	16f
.	.	.	16e
=90	=90	=90	=90
8r	8r	16A-	[2f
.	.	16c	.
8F	8A-	16B	.
.	.	16c	.
8F	8A-	16d-	.
.	.	16c	.
8F	8A-	16B	.
.	.	16c	.
4F	4A-	4c	16f]
.	.	.	16a-
.	.	.	16b-
.	.	.	16cc
4r	4r	4r	16b-
.	.	.	16a-
.	.	.	16g
.	.	.	16f
=91	=91	=91	=91
8r	8r	16r	2g
.	.	16c	.
8E	8B-	16B	.
.	.	16c	.
8E	8B-	16d-	.
.	.	16c	.
8E	8B-	16B	.
.	.	16c	.
4E	4B-	4c	16e
.	.	.	16g
.	.	.	16b-
.	.	.	16dd-
4r	4r	4r	16cc
.	.	.	16b-
.	.	.	16a-
.	.	.	16g
=92	=92	=92	=92
8r	8r	16r	2f
.	.	16c	.
8E-	8A	16B	.
.	.	16c	.
8E-	8A	16d-	.
.	.	16c	.
8E-	8A	16B	.
.	.	16c	.
4E-	4A	4c	16A
.	.	.	16f
.	.	.	16cc
.	.	.	16ee-
4r	4r	4r	16dd-
.	.	.	16cc
.	.	.	16b-
.	.	.	16a
=93	=93	=93	=93
8r	8r	16r	2b-
.	.	16f	.
8B-	8d-	16e	.
.	.	16f	.
8B-	8d-	16g-	.
.	.	16f	.
8B-	8d-	16e	.
.	.	16f	.
4B-	4d-	4f	16ff
.	.	.	16ee
.	.	.	16ff
.	.	.	16ee
4r	4r	4r	16ff
.	.	.	16dd-
.	.	.	16cc
.	.	.	16b-
=94	=94	=94	=94
8r	8r	16r	[2cc
.	.	16f	.
8A	8e-	16e	.
.	.	16f	.
8A	8e-	16g-	.
.	.	16f	.
8A	8e-	16e	.
.	.	16f	.
4A	4e-	4f	16cc]
.	.	.	16ee-
.	.	.	16ff
.	.	.	16gg-
4r	4r	4r	16ff
.	.	.	16ee-
.	.	.	16dd-
.	.	.	16cc
=95	=95	=95	=95
8r	8r	16r	2b-
.	.	16f	.
8A-	8d	16e	.
.	.	16f	.
8A-	8d	16g	.
.	.	16f	.
8A-	8d	16e	.
.	.	16f	.
4A-	4d	4f	16dd
.	.	.	16b-
.	.	.	16ee-
.	.	.	16cc
4r	4r	4r	16ff
.	.	.	16dd
.	.	.	16ee-
.	.	.	16cc
=96	=96	=96	=96
8r	8r	16r	[2b
.	.	16f	.
8G	8d	16e	.
.	.	16f	.
8G	8d	16g	.
.	.	16f	.
8G	8d	16e	.
.	.	16f	.
4G	4d	4f	16b]
.	.	.	16aa-
.	.	.	16gg
.	.	.	16aa-
4r	4r	4r	16gg
.	.	.	16ff
.	.	.	16ee
.	.	.	16dd
=97	=97	=97	=97
8r	8r	16r	2cc
.	.	16g	.
8c	8e	16f#	.
.	.	16g	.
8c	8e	16a-	.
.	.	16g	.
8c	8e	16f#	.
.	.	16g	.
4c	4e	4g	16ee
.	.	.	16cc
.	.	.	16ff
.	.	.	16dd
4r	4r	4r	16gg
.	.	.	16ee
.	.	.	16ff
.	.	.	16dd
=98	=98	=98	=98
8r	8r	16r	2cc
.	.	16g	.
8B-	8e	16f#	.
.	.	16g	.
8B-	8e	16a-	.
.	.	16g	.
8B-	8e	16f#	.
.	.	16g	.
4B-	4e	4g	16e
.	.	.	16cc
.	.	.	16ee
.	.	.	16dd
8r	4r	4r	16ff
.	.	.	16ee
8e	.	.	16gg
.	.	.	16ff
=99	=99	=99	=99
8f	4r	8r	4.aa-
8A-	.	8cc	.
8B-	16f	4.dd-	.
.	16dd-	.	.
8d-	16dd-	.	8bb-
.	16cc	.	.
8e-	8.b-	.	4.gg
8G	.	8ee-	.
.	16g	.	.
8A-	16e-	[4cc	.
.	16cc	.	.
8c	16cc	.	8aa-
.	16b-	.	.
=100	=100	=100	=100
8d-	8.a-	8cc]	4.ff
8F	.	8dd-	.
.	16f	.	.
8G	16d-	4.b-	.
.	16b-	.	.
8B-	16b-	.	8gg
.	16a-	.	.
8c	8g	.	8ee
8E	8b-	8c	8gg
8F	8a-	8a-	[4cc
8c	8g	8e	.
=101	=101	=101	=101
4.d-	8f	4.f	8cc]
.	8a-	.	8dd-
.	4.b-	.	4.b-
8e-	.	8g	.
4.c	.	4.e-	.
.	8g	.	8cc
.	[4a-	.	[4a-
8d-	.	8f	.
=102	=102	=102	=102
4.B-	8a-]	4.d-	8a-]
.	8f	.	8b-
.	4.g	.	4.g
8c	.	8e-	.
4.A-	.	4.c	.
.	8e	.	8a-
.	4f	.	4f
8B-	.	8d-	.
=103	=103	=103	=103
4G	8g	8c	8e
.	4c	8e	4b-
4F	.	8g	.
.	8f	8c	4a-
4BB-	2f	4d-	.
.	.	.	4g
4BB	.	4d	.
.	.	.	8f
=104	=104	=104	=104
8C	8G	8c	16e
.	.	.	16g
8C	8G	8e	16cc
.	.	.	16g
8C	8G	8e	16cc
.	.	.	16g
8C	8G	8e	16cc
.	.	.	16g
8C	2B	2f	16f
.	.	.	16b
8C	.	.	16dd
.	.	.	16b
8C	.	.	16a-
.	.	.	16f
8C	.	.	16d
.	.	.	16B
=105	=105	=105	=105
8C	4c	8e	16c
.	.	.	16e
8C	.	8e	16g
.	.	.	16e
8C	4C	8e	16g
.	.	.	16e
8C	.	8c	16g
.	.	.	16e
8C	2A-	2B	16A-
.	.	.	16d
8C	.	.	16f
.	.	.	16d
8C	.	.	16f
.	.	.	16d
8C	.	.	16f
.	.	.	16d
=106	=106	=106	=106
8C	8G	8c	16G
.	.	.	16c
8C	8G	8e	16e
.	.	.	16c
8C	8G	8e	16e
.	.	.	16c
8C	8G	8e	16e
.	.	.	16c
4C	4G	4c	4G
4r	4r	8r	8r
.	.	8c	8c
=107	=107	=107	=107
8r	8r	4a-	4cc
8F	8A-	.	.
8G	8B-	8g	8b-
8A-	8c	8f	8a-
8.B-	8.d-	4.f	8.g
16A-	16c	.	16a-
8G	8B-	.	8b-
8A-	8c	8f	8a-
=108	=108	=108	=108
8.B-	8.d-	4.f	8.g
16A-	16c	.	16a-
8G	8B-	.	8b-
8A-	8c	8f	8a-
8B-	8d-	4f	8g
8A-	8c	.	8a-
8G	8B-	8g	8b-
8F	8A-	8a-	8cc
=109	=109	=109	=109
2E	4G	4.b-	4.dd-
.	2c	.	.
.	.	16a-	16cc
.	.	16g	16b-
8F	.	8f	8a-
8r	.	8a-	8cc
8AA-	8f	8c	8r
8r	8r	8r	8f
=110	=110	=110	=110
8BB-	8d-	8d-	8g
8r	8r	8r	8b-
8C	8G	8B-	8r
8r	8r	8r	8e
4FF	4A-	4A-	4f
4r	4r	4r	8r
.	.	.	16cc
.	.	.	16a-
=111	=111	=111	=111
8.B-	4.f	8.d-	8.g
16A-	.	16c	16a-
8G	.	8B-	8b-
8A-	8f	8c	8a-
4B-	4f	4d-	4g
4r	4r	4r	4r
=112	=112	=112	=112
8.B-	4.f	8.d-	8.g
16A-	.	16c	16a-
8G	.	8B-	8b-
8A-	8f	8c	8a-
4B-	4f	4d-	4g
4r	4r	4r	4r
=113	=113	=113	=113
4B	4f	4d-	4a-
2.r	2.r	2.r	4r
.	.	.	4dd
.	.	.	4r
=114	=114	=114	=114
[2c	8.e	8.g	[3..cc
.	16f	16a-	.
.	8g	8b-	.
.	8f	8a-	.
8c]	8e	4g	.
.	.	.	24cc]
8d-	8f	.	8b
8c	8e	4r	8cc
8d-	8f	.	8b
=115	=115	=115	=115
1c	8.e	8.g	[3..cc
.	16f	16a-	.
.	8g	8b-	.
.	8f	8a-	.
.	8e	8g	.
.	.	.	24cc]
.	8f	8a-	8b
.	8e	8g	8cc
.	8f	8a-	8b
=116	=116	=116	=116
[2c	8.e	8.g	[3..cc
.	16f	16a-	.
.	8g	8b-	.
.	8f	8a-	.
8c]	8e	8g	.
.	.	.	24cc]
8B-	8d-	8g	8ee
8B-	8d-	8g	8ee
8B-	8d-	8g	8ee
=117	=117	=117	=117
4A-	4c	4f	8.ff
.	.	.	16gg
4.r	4.r	4.r	8aa-
.	.	.	8gg
.	.	.	8ff
8A-	8c	8f	4.r
8A-	8c	8f	.
8A-	8c	8f	.
=118	=118	=118	=118
4B-	4d-	4f	16ff
.	.	.	16gg
.	.	.	16aa-
.	.	.	16bb-
4.r	4.r	4.r	16aa-
.	.	.	16ff
.	.	.	16gg
.	.	.	16ee
.	.	.	8ff
8B-	8d-	8f	4.r
8B-	8d-	8f	.
8B-	8d-	8f	.
=119	=119	=119	=119
4B	4f	4a-	16r
.	.	.	16ff
.	.	.	16ee
.	.	.	16ff
4.r	4.r	4.r	16gg
.	.	.	16ff
.	.	.	16aa-
.	.	.	16gg
.	.	.	8ff
8B	8f	8a-	4.r
8B	8f	8a-	.
8B	8f	8a-	.
=120	=120	=120	=120
8c	2f	1g	4r
8c	.	.	.
8c	.	.	4.b-
8c	.	.	.
8c	2e	.	.
8c	.	.	8dd-
8c	.	.	8cc
8c	.	.	8b-
=121	=121	=121	=121
8c	[1e-	[1g-	4a
8c	.	.	.
8c	.	.	2a
8c	.	.	.
8c	.	.	.
8c	.	.	.
8B-	.	.	4b-
8B-	.	.	.
=122	=122	=122	=122
8A	2.e-]	4g-]	4cc
8A	.	.	.
8A	.	2f	2cc
8A	.	.	.
8A	.	.	.
8A	.	.	.
8A	4cc	4f	4ee-
8A	.	.	.
=123	=123	=123	=123
8B-	4b-	1f	4dd-
8B-	.	.	.
8c	2a-	.	4cc
8c	.	.	.
2d-	.	.	2b
.	8g	.	.
.	8f	.	.
=124	=124	=124	=124
[2c	8.e	8.g	[3..cc
.	16f	16a-	.
.	8g	8b-	.
.	8f	8a-	.
8c]	8e	2g	.
.	.	.	24cc]
8d-	8f	.	8b
8c	8e	.	8cc
8d-	8f	.	8b
=125	=125	=125	=125
[1c	8.e	8.g	[3..cc
.	16f	16a-	.
.	8g	8b-	.
.	8f	8a-	.
.	8e	8g	.
.	.	.	24cc]
.	8f	8a-	8b
.	8e	8g	8cc
.	8f	8a-	8b
=126	=126	=126	=126
8c]	2e	16g	2cc
.	.	16cc	.
8c	.	16b	.
.	.	16cc	.
8c	.	16dd-	.
.	.	16cc	.
8c	.	16b	.
.	.	16cc	.
8B-	2g	16r	2ee
.	.	16cc	.
8B-	.	16b	.
.	.	16cc	.
8B-	.	16dd-	.
.	.	16cc	.
8B-	.	16b	.
.	.	16cc	.
=127	=127	=127	=127
8A-	2c	16r	2ff
.	.	16cc	.
8A-	.	16b	.
.	.	16cc	.
8A-	.	16dd-	.
.	.	16cc	.
8A-	.	16b	.
.	.	16cc	.
8E	2G	16r	2bb-
.	.	16cc	.
8E	.	16b	.
.	.	16cc	.
8E	.	16dd-	.
.	.	16cc	.
8E	.	16b	.
.	.	16cc	.
=128	=128	=128	=128
8F	8A-	8cc	16aa-
.	.	.	16cc
8r	8r	8r	8cc
8E	8G	8cc	16bb-
.	.	.	16cc
8r	8r	8r	8cc
8F	8A-	8cc	16aa-
.	.	.	16cc
8r	8r	8r	8cc
8E	8G	8cc	16bb-
.	.	.	16cc
8r	8r	8r	8cc
=129	=129	=129	=129
4F	4A-	4cc	16aa-
.	.	.	16ff
.	.	.	16aa-
.	.	.	16ff
4r	4r	4r	16ccc
.	.	.	16aa-
.	.	.	16ccc
.	.	.	16aa-
8AA-	8f	2cc	8ff
8AA-	8f	.	8ee-
8AA-	8f	.	8dd-
8AA-	8f	.	8cc
=130	=130	=130	=130
4BB-	4f	4dd-	16b-
.	.	.	16dd-
.	.	.	16ff
.	.	.	16bb-
4r	4r	4.r	4.ddd-
4B-	4g	.	.
.	.	8dd-	8bb-
4r	4r	8cc	8aa-
.	.	8b-	8gg
=131	=131	=131	=131
8c	2a-	16a-	2ff
.	.	16cc	.
8c	.	16ff	.
.	.	16cc	.
8c	.	16ff	.
.	.	16cc	.
8c	.	16a-	.
.	.	16f	.
8c	4r	4c	2gg
8c	.	.	.
8c	4B-	4ee	.
8c	.	.	.
=132	=132	=132	=132
8d-	4A-	16ff	2ff
.	.	16b-	.
8D-	.	16a	.
.	.	16b-	.
8r	8r	16cc	.
.	.	16b-	.
8d-	8f	16a	.
.	.	16b-	.
8c	8g	16r	2ee-
.	.	16b-	.
8C	8a-	16cc	.
.	.	16g	.
8r	4r	16b-	.
.	.	16a-	.
8c	.	16g	.
.	.	16a-	.
=133	=133	=133	=133
8B-	4.r	16r	2dd-
.	.	16a-	.
8BB-	.	16b-	.
.	.	16f	.
8r	.	16a-	.
.	.	16g	.
8B-	8B-	16f	.
.	.	16g	.
8A-	8e	16r	2cc
.	.	16g	.
8AA-	8f	16a-	.
.	.	16e	.
8r	8r	16g	.
.	.	16f	.
8A-	8c	16e	.
.	.	16f	.
=134	=134	=134	=134
4G	4.c	16r	4b-
.	.	16f	.
.	.	16g	.
.	.	16e	.
4F	.	16r	4a-
.	.	16e	.
.	8c	16f	.
.	.	16c	.
4BB-	4B-	4d-	16r
.	.	.	16g
.	.	.	16b-
.	.	.	16g
8C	8A-	8c	8f
8C	8G	8B-	8e
=135	=135	=135	=135
8F	4F	2A-	4f
8F	.	.	.
8F	2r	.	4c
8F	.	.	.
8F	.	2B-	2d-
8F	.	.	.
8E	4G	.	.
8E	.	.	.
=136	=136	=136	=136
8F	4A-	2A-	4c
8F	.	.	.
8F	2r	.	4f
8F	.	.	.
8F	.	2B-	2d-
8F	.	.	.
8E	4G	.	.
8E	.	.	.
=137	=137	=137	=137
8F	4A-	2.A-	4c
8F	.	.	.
8F	2c	.	4f
8F	.	.	.
8E-	.	.	4g-
8E-	.	.	.
8AA-	4e-	4g-	4c
8AA-	.	.	.
=138	=138	=138	=138
8F	[1A-	4A-	4c
8F	.	.	.
8F	.	2c	4f
8F	.	.	.
8E-	.	.	2g-
8E-	.	.	.
8E-	.	4c	.
8E-	.	.	.
=139	=139	=139	=139
4D-	4A-]	4d-	8.f
.	.	.	16g-
4.r	4.r	4.r	8a-
.	.	.	8g-
.	.	.	4f
8D-	8F	8A-	.
8D-	8F	8A-	4r
8D-	8F	8A-	.
=140	=140	=140	=140
4C	4E-	4A-	8.g-
.	.	.	16a-
4.r	4.r	4.r	8b-
.	.	.	8a-
.	.	.	4g-
8C	8E-	8A-	.
8C	8E-	8A-	4r
8C	8E-	8A-	.
=141	=141	=141	=141
4C-	4D-	4A-	8.f
.	.	.	16g-
4.r	4.r	4.r	8a-
.	.	.	8g-
.	.	.	4f
8C-	8A-	8d-	.
8C-	8A-	8d-	4r
8C-	8A-	8d-	.
=142	=142	=142	=142
4BB-	4G-	4d-	8.g-
.	.	.	16a-
4.r	4.r	4.r	8b-
.	.	.	8a-
.	.	.	4g-
8BB-	8G-	8d-	.
8BB-	8G-	8d-	4r
8BB-	8G-	8d-	.
=143	=143	=143	=143
4FF	4A-	4d-	8.a-
.	.	.	16b-
4.r	4.r	4.r	8cc-
.	.	.	8b-
.	.	.	4a-
8F	8A-	8d-	.
8F	8A-	8d-	4r
8F	8A-	8d-	.
=144	=144	=144	=144
8G-	2d-	2d-	1b--
8G-	.	.	.
8G-	.	.	.
8G-	.	.	.
8G-	2B--	2e--	.
8G-	.	.	.
8G-	.	.	.
8G-	.	.	.
=145	=145	=145	=145
8F-	2c-	2e--	2a-
8F-	.	.	.
8F-	.	.	.
8F-	.	.	.
8F-	[2f-	2d-	[2b--
8F-	.	.	.
8F-	.	.	.
8F-	.	.	.
=146	=146	=146	=146
8F-	2f-]	1c-	2b--]
8F-	.	.	.
8F-	.	.	.
8F-	.	.	.
8F	[2d-	.	[2a-
8F	.	.	.
8F	.	.	.
8F	.	.	.
=147	=147	=147	=147
8G-	2d-]	2B--	2a-]
8G-	.	.	.
8G-	.	.	.
8G-	.	.	.
8C-	2A-	2e-	2g-
8C-	.	.	.
8C-	.	.	.
8C-	.	.	.
=148	=148	=148	=148
8D-	1A-	2d-	8f
8D-	.	.	4f
8D-	.	.	.
8D-	.	.	4f
8D-	.	2c	.
8D-	.	.	4f
8D-	.	.	.
8D-	.	.	[8f
=149	=149	=149	=149
8D-	8A-	8B	8f]
8D-	4A-	4B	4f
8D-	.	.	.
8D-	4A-	4B	4f
8D-	.	.	.
8D-	4A-	4B	4f
8D-	.	.	.
8D-	8A-	8B	8f
=150	=150	=150	=150
4C	8.A-	[2c	8.f
.	16B-	.	16g
4CC	8c	.	8a-
.	8B-	.	8g
2r	8A-	8c]	8f
.	8F	8a-	8cc
.	8G	8g	8b-
.	8A-	8f	8a-
=151	=151	=151	=151
4C	8.B-	8.e	8.g
.	16A-	16f	16a-
4CC	8G	8g	8b-
.	8A-	8f	8a-
2r	8B-	8e	8g
.	8E	8b-	8dd-
.	8F	8a-	8cc
.	8G	8g	8b-
=152	=152	=152	=152
4C	8.A-	8.f	8.a-
.	16G	16g	16b-
4CC	8F	8a-	8cc
.	8G	8g	8b-
2r	8A-	8f	8a-
.	8f	8cc	8aa-
.	8g	8b-	8gg
.	8a-	8a-	8ff
=153	=153	=153	=153
4C	8.b-	8.g	8.ee
.	16cc	16a-	16ff
4CC	8dd-	8b-	8gg
.	8cc	8a-	8ff
2r	8b-	8g	8ee
.	8e	8bb-	8ddd-
.	8f	8aa-	8ccc
.	8g	8gg	8bb-
=154	=154	=154	=154
8.F	8.a-	8ff	8aa-
.	.	8f	8f
16G	16b-	.	.
8A-	8cc	2.r	4r
8G	8b-	.	.
8F	8a-	.	16cc
.	.	.	16dd-
8E-	8g	.	16ee-
.	.	.	16ff
8D-	8f	.	16gg
.	.	.	16aa-
8C	8e-	.	16bb-
.	.	.	16ccc
=155	=155	=155	=155
8.BB-	8.d-	16f	8ddd-
.	.	16b-	.
.	.	16cc	8f
16C	16e-	16a	.
8D-	8f	8b-	4r
8C	8e-	2r	.
8BB-	8d-	.	16f
.	.	.	16g
8AA-	8c	.	16a-
.	.	.	16b-
8GG	8B-	.	16cc
.	.	.	16dd
8FF	8A-	8r	16ee
.	.	.	16ff
=156	=156	=156	=156
8EE	8G	8cc	8gg
8r	8r	8gg	8bb-
8FF	8A-	8r	8r
8r	8r	8cc	8aa-
8BB-	8d-	8r	8r
8r	8r	8b-	8gg
8C	8B-	8r	8r
8r	8r	8g	8ee
=157	=157	=157	=157
8.F	8.a-	8a-	8ff
.	.	8f	8f
16G	16b-	.	.
8A-	8cc	2.r	4r
8G	8b-	.	.
8F	8a-	.	16cc
.	.	.	16dd-
8E-	8g	.	16ee-
.	.	.	16ff
8D-	8f	.	16gg
.	.	.	16aa-
8C	8e-	.	16bb-
.	.	.	16ccc
=158	=158	=158	=158
8.BB-	8.d-	16f	8ddd-
.	.	16b-	.
.	.	16cc	8f
16C	16e-	16a	.
8D-	8f	8b-	4r
8C	8e-	2r	.
8BB-	8d-	.	16f
.	.	.	16g
8AA-	8c	.	16a-
.	.	.	16b-
8GG	8B-	.	16cc
.	.	.	16dd
8FF	8A-	8r	16ee
.	.	.	16ff
=159	=159	=159	=159
8EE	8G	8cc	8gg
8r	8r	8gg	8bb-
8FF	8A-	8r	8r
8r	8r	8cc	8aa-
8BB-	8d-	8r	8r
8r	8r	8b-	8gg
8C	8B-	8r	8r
8r	8r	8g	8ee
=160	=160	=160	=160
4FF	4A-	4f	4ff
4r	4r	4r	4r
4CC	4c	4c	4G 4e
4r	4r	4r	4r
=161	=161	=161	=161
4FF	4F	4c	4A- 4f
2.r	2.r	2.r	2.r
==	==	==	==
*-	*-	*-	*-
!!!RWG1: This file contains only pitch and duration data.
!!!RWG2: Transposing instruments are not transposed.
!!!RWG3: Spines may have incompatible meters.
!!!RWG4: Durations of rests and tied notes may be interpreted.
!!!RWG: Key is interpreted using the Humdrum key tool.
!!!GTL: 6 Divertimentos ("Sun")
!!!AFT: stage1
!!!END: 1997/04/15
!!!KEY: 1775451289
!!!EMD: Converted from MuseData to Humdrum Dec 16, 2000, by Andreas Kornstaedt using muse2kern.
!!!EMD: Manual editing by Craig Sapp, Nov 2001
